libs/ui/packages/crypto-icons/src/svg/X.svg

<svg width="24" height="24" viewBox="0 0 24 24" fill="none">
<path fill-rule="evenodd" clip-rule="evenodd" d="M10.5897 4.71712H11.9997V9.12862L10.5897 7.65637V4.71712Z" fill="#3B5998"/>
<path fill-rule="evenodd" clip-rule="evenodd" d="M4.51088 6.20436H8.22263C9.48038 7.52061 10.7434 8.83461 12.0011 10.1539C12.7294 9.39711 13.4554 8.63511 14.1806 7.87611C14.7169 7.32036 15.2509 6.76161 15.7856 6.20361H19.4884C17.7604 7.95111 16.0346 9.70011 14.3059 11.4461C14.1244 11.6284 13.9421 11.8121 13.7644 11.9966C13.8079 12.0431 13.8544 12.0889 13.8934 12.1384L18.9716 17.2729L19.4899 17.7949H16.6174C16.5431 17.7949 16.4689 17.7994 16.3961 17.7896C16.1914 17.7836 15.9859 17.7926 15.7811 17.7851C15.4099 17.4019 15.0431 17.0134 14.6719 16.6286C13.9421 15.8696 13.2154 15.1061 12.4856 14.3456C12.3236 14.1776 12.1654 14.0051 11.9996 13.8416C11.6471 14.2166 11.2856 14.5864 10.9309 14.9614L8.92313 17.0569C8.68913 17.3006 8.45813 17.5459 8.22263 17.7851C8.02013 17.7911 7.81613 17.7851 7.61213 17.7881C7.49588 17.8024 7.37813 17.7926 7.26188 17.7956H4.51013L9.96113 12.2831C10.0549 12.1886 10.1479 12.0934 10.2386 11.9966L4.51013 6.20436H4.51088Z" fill="#3B5998"/>
<path fill-rule="evenodd" clip-rule="evenodd" d="M12.0026 14.8579C12.4721 15.3551 12.9476 15.8471 13.4186 16.3429C13.4216 17.3231 13.4186 18.3019 13.4186 19.2829H12.0011C12.0011 17.8076 12.0011 16.3331 12.0041 14.8579H12.0026Z" fill="#3B5998"/>
</svg>

<svg width="24" height="24" viewBox="0 0 24 24" fill="none"><path fill="#3b5998" fill-rule="evenodd" d="M10.59 4.717H12V9.13l-1.41-1.473z" clip-rule="evenodd"/><path fill="#3b5998" fill-rule="evenodd" d="M4.51 6.204h3.713c1.257 1.317 2.52 2.63 3.778 3.95q1.092-1.137 2.18-2.278.803-.835 1.605-1.672h3.702q-2.59 2.622-5.182 5.242-.274.273-.542.55.068.07.13.142l5.078 5.135.518.522h-2.873c-.074 0-.148.004-.22-.005-.206-.006-.411.003-.616-.005-.371-.383-.738-.772-1.11-1.156l-2.185-2.283c-.162-.168-.32-.34-.486-.504-.353.375-.714.744-1.07 1.12l-2.007 2.095q-.35.368-.7.728c-.203.006-.407 0-.61.003-.117.014-.235.005-.351.008H4.51l5.451-5.513q.141-.141.278-.286z" clip-rule="evenodd"/><path fill="#3b5998" fill-rule="evenodd" d="M12.003 14.858c.47.497.945.99 1.416 1.485.003.98 0 1.959 0 2.94H12q0-2.213.003-4.425" clip-rule="evenodd"/></svg>
